icons/transgender.svg

<svg width="48" height="48" viewBox="0 0 48 48" fill="none" xmlns="http://www.w3.org/2000/svg">
<path fill-rule="evenodd" clip-rule="evenodd" d="M12 9C12.5523 9 13 8.55228 13 8C13 7.44772 12.5523 7 12 7H8C7.44772 7 7 7.44772 7 8V12C7 12.5523 7.44772 13 8 13C8.55228 13 9 12.5523 9 12V10.4143L14.7528 16.1671C14.8598 16.2741 14.985 16.3518 15.1184 16.4001C14.4037 17.7772 14 19.3414 14 21C14 26.1854 17.9466 30.4489 23 30.9507V36.9301H21C20.4477 36.9301 20 37.3778 20 37.9301C20 38.4824 20.4477 38.9301 21 38.9301H23V41C23 41.5523 23.4477 42 24 42C24.5522 42 25 41.5523 25 41V38.9301H27C27.5522 38.9301 28 38.4824 28 37.9301C28 37.3778 27.5522 36.9301 27 36.9301H25V30.9507C30.0533 30.4489 34 26.1854 34 21C34 19.3769 33.6132 17.8441 32.9269 16.4887L35.0312 14.3976L36.4609 15.8273C36.8514 16.2178 37.4846 16.2178 37.8751 15.8273C38.2656 15.4367 38.2656 14.8036 37.8751 14.4131L36.4499 12.9878L39 10.4537V12.0001C39 12.5524 39.4477 13.0001 40 13.0001C40.5523 13.0001 41 12.5524 41 12.0001V8.00008C41 7.4478 40.5523 7.00008 40 7.00008H36C35.4477 7.00008 35 7.4478 35 8.00008C35 8.55237 35.4477 9.00008 36 9.00008H37.6255L35.0357 11.5736L33.6325 10.1704C33.242 9.77989 32.6088 9.77989 32.2183 10.1704C31.8277 10.5609 31.8277 11.1941 32.2183 11.5846L33.617 12.9834L31.8211 14.768C29.9888 12.4716 27.1662 11 24 11C20.8345 11 18.0125 12.4708 16.1802 14.7663L16.167 14.7529L10.4141 9H12ZM24 13C19.5817 13 16 16.5818 16 21C16 25.4183 19.5817 29 24 29C28.4182 29 32 25.4183 32 21C32 16.5818 28.4182 13 24 13Z" fill="black"/>
</svg>

<svg
  xmlns="http://www.w3.org/2000/svg"
  width="24"
  height="24"
  viewBox="0 0 24 24"
  fill="none"
  stroke="currentColor"
  stroke-width="2"
  stroke-linecap="round"
  stroke-linejoin="round"
>
  <path
    fill-rule="evenodd"
    d="M12 9a1 1 0 1 0 0-2H8a1 1 0 0 0-1 1v4a1 1 0 1 0 2 0v-1.586l5.753 5.753a1 1 0 0 0 .365.233A9.96 9.96 0 0 0 14 21c0 5.185 3.947 9.449 9 9.95v5.98h-2a1 1 0 1 0 0 2h2V41a1 1 0 1 0 2 0v-2.07h2a1 1 0 0 0 0-2h-2v-5.98c5.053-.501 9-4.765 9-9.95a9.96 9.96 0 0 0-1.073-4.511l2.104-2.091 1.43 1.43a1 1 0 0 0 1.414-1.415l-1.425-1.425L39 10.454V12a1 1 0 1 0 2 0V8a1 1 0 0 0-1-1h-4a1 1 0 1 0 0 2h1.626l-2.59 2.574-1.404-1.404a1 1 0 0 0-1.414 1.415l1.399 1.398-1.796 1.785A9.98 9.98 0 0 0 24 11a9.98 9.98 0 0 0-7.82 3.766l-.013-.013L10.414 9zm12 4a8 8 0 1 0 0 16 8 8 0 0 0 0-16"
    clip-rule="evenodd"
  />
</svg>
